file/palmolive.svg

<svg clip-rule="evenodd" fill-rule="evenodd" stroke-linejoin="round" stroke-miterlimit="1.41421" viewBox="0 0 560 400" xmlns="http://www.w3.org/2000/svg" xmlns:xlink="http://www.w3.org/1999/xlink"><linearGradient id="a" gradientTransform="matrix(11.6864 -13.4504 13.4504 11.6864 132.555 117.815)" gradientUnits="userSpaceOnUse" x1="0" x2="1" y1="0" y2="0"><stop offset="0" stop-color="#a7c699"/><stop offset="1" stop-color="#fff"/></linearGradient><g transform="matrix(1.63254 0 0 1.63254 84.0958 4.09654)"><path d="m11.385 102.421c-2.125-.001-1.58-.717-1.58 4.516v44.827c-.002 1.002-.286 1.364.67 1.361 54.866-.131 109.869-.007 164.748-.007h52.844c2.485 0 2.145.49 2.145-1.919v-46.859c0-.44.173-1.693-.153-1.88-.201-.116-182.787-.04-218.674-.04z" fill="#00564e"/><g fill="#fff"><path d="m91.258 123.44c.521.685 5.924 14.047 7.081 16.463.983 2.051 2.733 2.005 3.671-.036 1.63-3.545 3.348-8.028 4.996-11.719.215-.483 1.686-4.289 2.09-4.657l.001 17.556 3.392.009.003-22.828c0-1.112.184-2.709-.399-3.488-.513-.686-1.822-1.007-2.645-.296-.666.574-.947 1.66-1.319 2.517l-3.387 7.9c-.791 1.788-1.535 3.483-2.28 5.293-.367.893-.753 1.796-1.149 2.69-.215.484-.389.869-.578 1.34-.095.236-.161.399-.259.637l-.376.596c-.288-.84-.783-1.879-1.126-2.698l-5.707-13.268c-.424-1.022-1.76-4.608-2.488-5.077-.977-.629-2.174-.225-2.657.535-.451.712-.278 2.495-.278 3.432l.002 22.711 3.4-.005z"/><path d="m126.929 117.867c5.865-1.129 10.364 3.338 11.157 8.144.97 5.879-3.027 10.701-7.802 11.547-7.985 1.415-14.772-7.645-9.328-15.897 1.08-1.636 3.222-3.264 5.973-3.794zm-11.378 11.314c.648 6.887 6.701 12.917 14.433 12.117 6.881-.712 12.482-7.192 11.679-15.056-.708-6.924-6.651-12.971-14.503-12.121-6.849.741-12.351 7.162-11.609 15.06z"/><path d="m55.503 120.281c.223.233 3.823 9.665 4.088 10.596l-.443.019-7.227-.003-.418-.028zm-11.488 20.768 3.631.005 2.538-6.753 10.712.001 2.57 6.715 3.62.04c-.304-1.1-2.094-5.597-2.632-7.022l-5.284-13.914c-.45-1.184-.897-2.324-1.332-3.517-.462-1.267-.81-2.553-2.305-2.562-1.452-.008-1.784 1.345-2.245 2.499z"/><path d="m199.462 117.749 13.106-.023.003-3.374-16.503-.003c0 7.202.003 14.405-.001 21.607-.002 4.538 1.431 5.099 5.804 5.099 1.724 0 9.685.094 10.702-.037l-.017-3.333c-1.461-.162-3.82-.021-5.378-.021-8.585 0-7.72.58-7.72-2.95 0-1.564-.131-3.811.033-5.292l10.862-.006-.015-3.386h-10.879z"/><path d="m31.513 128.947-.008-11.168c1.744-.186 6.391-.188 7.767.45 4.212 1.953 4.359 8.119.079 10.241-1.189.59-2.27.508-3.689.508-1.233 0-2.979.1-4.149-.031zm.015 3.445c4.359-.336 7.544.767 10.784-1.755 2.1-1.634 4.112-4.794 3.4-8.91-.578-3.339-2.929-5.897-5.663-6.87-1.79-.638-3.744-.507-5.742-.507-1.951 0-4.31-.119-6.211.023l.003 26.678 3.406-.005z"/><path d="m174.491 115.573c-.621-1.602.054-1.223-4.061-1.226.223.98.943 2.644 1.336 3.616l3.967 10.484c.826 2.318 1.761 4.659 2.642 6.954.448 1.165.884 2.368 1.338 3.518.474 1.202.765 2.475 2.286 2.446 1.422-.028 1.847-1.412 2.255-2.588.396-1.136.865-2.276 1.313-3.438l5.28-13.914c.441-1.146.917-2.351 1.337-3.512.376-1.04 1.048-2.489 1.302-3.567l-3.608.043-7.887 20.768c-.274-.322-3.554-9.212-4.019-10.414z"/><path d="m144.94 114.367c-.155.859-.039 19.728-.039 21.137 0 4.204.658 5.553 5.03 5.551 1.503-.001 9.677.103 10.455-.052l-.012-3.305c-.706-.122-7.525-.035-8.863-.035-1.423 0-3.13.405-3.218-1.146-.172-3.025.165-20.925-.059-22.164z"/><path d="m69.653 137.459c-.048 1.516.81 2.612 1.736 3.08 1.243.629 2.752.516 4.244.516 1.439 0 8.656.095 9.45-.05l-.017-3.305c-.983-.172-7.605-.037-9.546-.037-.861.001-2.33.2-2.398-.7-.404-.51-.196-4.684-.196-5.636l-.003-16.882-3.284-.003z"/><path d="m163.668 141.056 3.407-.031-.001-26.67-3.409-.001z"/></g><path d="m119.154 102.421c.521.88 1.02 3.707 3.688 6.199.431.403.771.838 1.252 1.233.462.38.882.754 1.374 1.11.704.511 2.19 1.545 3.121 1.891-.141-.701-.846-2.005-1.125-2.983-.287-1.009-.493-2.241-.534-3.381-.058-1.587.429-5.614 1.202-6.61l-.062-.282c-.124-.153-.203-.303-.336-.498l-.792-1.016c-.739-.982-2.441-2.489-3.499-3.276-.412-.305-.676-.524-1.109-.811-.423-.28-.723-.508-1.16-.759-.443-.255-.75-.597-1.279-.641-.431 1.853-.594 1.015-1.156 4.602-.226 1.44-.068 4.127.415 5.222z" fill="#757c25"/><path d="m128.589 112.854.212.101c.145-.68.474-1.361.689-2.08.228-.764.314-1.461.5-2.245.089-2.071.236-3.048-.25-5.116-.26-1.11-1.002-2.934-1.608-3.634-.773.996-1.26 5.023-1.202 6.61.041 1.139.247 2.371.534 3.381.279.978.984 2.282 1.125 2.983z" fill="#696534"/><path d="m129.99 108.63c-.186.784-.272 1.481-.5 2.245-.215.719-.544 1.4-.689 2.08l1.698-.693c.448-.169 1.959-.876 2.156-1.156.417-.135 1.153-.583 1.449-.875.635-.304 1.121-.829 1.626-1.198.715-.721 2.522-2.336 2.883-3.305.023-.023.06-.088.071-.067.01.02.054-.05.068-.066l.654-1.055c.244-.436.492-.85.545-1.306.424-.399.177-.457.495-.751.17-.467.294-.962.437-1.432.112-.365.309-1.001.353-1.369.082-.474.226-1.158.226-1.678.278-3.182.362-2.504.004-6.314-.1-1.065-.228-1.971-.41-2.977-.107-.586-.179-.912-.263-1.433-.09-.555-.135-.581-1.021-.103l-.681.394c-.417.1-.663.275-1.022.503-.021.013-.051.029-.071.043l-.262.203c-.482.22-.929.565-1.392.89l-3.125 2.685c-.286.233-.388.47-.647.732-.28.283-.472.367-.62.761-.322.251-.527.543-.784.885-.255.34-.549.609-.659 1.053-.314.195-.128.052-.363.408l-2.076 3.864.062.282c.605.7 1.348 2.524 1.608 3.634.486 2.068.339 3.045.25 5.116z" fill="url(#a)" fill-rule="nonzero"/></g></svg>

<?xml version="1.0" encoding="UTF-8" standalone="no"?>
<!DOCTYPE svg PUBLIC "-//W3C//DTD SVG 1.1//EN" "http://www.w3.org/Graphics/SVG/1.1/DTD/svg11.dtd">
<svg width="100%" height="100%" viewBox="0 0 560 400" version="1.1" xmlns="http://www.w3.org/2000/svg" xmlns:xlink="http://www.w3.org/1999/xlink" xml:space="preserve" xmlns:serif="http://www.serif.com/" style="fill-rule:evenodd;clip-rule:evenodd;stroke-linejoin:round;stroke-miterlimit:1.41421;">
    <g transform="matrix(1.63254,0,0,1.63254,84.0958,4.09654)">
        <path id="path2" d="M11.385,102.421C9.26,102.42 9.805,101.704 9.805,106.937L9.805,151.764C9.803,152.766 9.519,153.128 10.475,153.125C65.341,152.994 120.344,153.118 175.223,153.118L228.067,153.118C230.552,153.118 230.212,153.608 230.212,151.199L230.212,104.34C230.212,103.9 230.385,102.647 230.059,102.46C229.858,102.344 47.272,102.42 11.385,102.42L11.385,102.421Z" style="fill:rgb(0,86,78);"/>
        <g id="Layer1001">
            <path id="path4" d="M91.258,123.44C91.779,124.125 97.182,137.487 98.339,139.903C99.322,141.954 101.072,141.908 102.01,139.867C103.64,136.322 105.358,131.839 107.006,128.148C107.221,127.665 108.692,123.859 109.096,123.491L109.097,141.047L112.489,141.056L112.492,118.228C112.492,117.116 112.676,115.519 112.093,114.74C111.58,114.054 110.271,113.733 109.448,114.444C108.782,115.018 108.501,116.104 108.129,116.961L104.742,124.861C103.951,126.649 103.207,128.344 102.462,130.154C102.095,131.047 101.709,131.95 101.313,132.844C101.098,133.328 100.924,133.713 100.735,134.184C100.64,134.42 100.574,134.583 100.476,134.821L100.1,135.417C99.812,134.577 99.317,133.538 98.974,132.719L93.267,119.451C92.843,118.429 91.507,114.843 90.779,114.374C89.802,113.745 88.605,114.149 88.122,114.909C87.671,115.621 87.844,117.404 87.844,118.341L87.846,141.052L91.246,141.047L91.258,123.44Z" style="fill:white;"/>
            <path id="path6" d="M126.929,117.867C132.794,116.738 137.293,121.205 138.086,126.011C139.056,131.89 135.059,136.712 130.284,137.558C122.299,138.973 115.512,129.913 120.956,121.661C122.036,120.025 124.178,118.397 126.929,117.867ZM115.551,129.181C116.199,136.068 122.252,142.098 129.984,141.298C136.865,140.586 142.466,134.106 141.663,126.242C140.955,119.318 135.012,113.271 127.16,114.121C120.311,114.862 114.809,121.283 115.551,129.181Z" style="fill:white;"/>
            <path id="path8" d="M55.503,120.281C55.726,120.514 59.326,129.946 59.591,130.877L59.148,130.896L51.921,130.893L51.503,130.865L55.503,120.281ZM44.015,141.049L47.646,141.054L50.184,134.301L60.896,134.302L63.466,141.017L67.086,141.057C66.782,139.957 64.992,135.46 64.454,134.035L59.17,120.121C58.72,118.937 58.273,117.797 57.838,116.604C57.376,115.337 57.028,114.051 55.533,114.042C54.081,114.034 53.749,115.387 53.288,116.541L44.015,141.049Z" style="fill:white;"/>
            <path id="path10" d="M199.462,117.749L212.568,117.726L212.571,114.352L196.068,114.349C196.068,121.551 196.071,128.754 196.067,135.956C196.065,140.494 197.498,141.055 201.871,141.055C203.595,141.055 211.556,141.149 212.573,141.018L212.556,137.685C211.095,137.523 208.736,137.664 207.178,137.664C198.593,137.664 199.458,138.244 199.458,134.714C199.458,133.15 199.327,130.903 199.491,129.422L210.353,129.416L210.338,126.03L199.459,126.03L199.462,117.749Z" style="fill:white;"/>
            <path id="path12" d="M31.513,128.947L31.505,117.779C33.249,117.593 37.896,117.591 39.272,118.229C43.484,120.182 43.631,126.348 39.351,128.47C38.162,129.06 37.081,128.978 35.662,128.978C34.429,128.978 32.683,129.078 31.513,128.947ZM31.528,132.392C35.887,132.056 39.072,133.159 42.312,130.637C44.412,129.003 46.424,125.843 45.712,121.727C45.134,118.388 42.783,115.83 40.049,114.857C38.259,114.219 36.305,114.35 34.307,114.35C32.356,114.35 29.997,114.231 28.096,114.373L28.099,141.051L31.505,141.046L31.528,132.392Z" style="fill:white;"/>
            <path id="path14" d="M174.491,115.573C173.87,113.971 174.545,114.35 170.43,114.347C170.653,115.327 171.373,116.991 171.766,117.963L175.733,128.447C176.559,130.765 177.494,133.106 178.375,135.401C178.823,136.566 179.259,137.769 179.713,138.919C180.187,140.121 180.478,141.394 181.999,141.365C183.421,141.337 183.846,139.953 184.254,138.777C184.65,137.641 185.119,136.501 185.567,135.339L190.847,121.425C191.288,120.279 191.764,119.074 192.184,117.913C192.56,116.873 193.232,115.424 193.486,114.346L189.878,114.389L181.991,135.157C181.717,134.835 178.437,125.945 177.972,124.743L174.491,115.573Z" style="fill:white;"/>
            <path id="path16" d="M144.94,114.367C144.785,115.226 144.901,134.095 144.901,135.504C144.901,139.708 145.559,141.057 149.931,141.055C151.434,141.054 159.608,141.158 160.386,141.003L160.374,137.698C159.668,137.576 152.849,137.663 151.511,137.663C150.088,137.663 148.381,138.068 148.293,136.517C148.121,133.492 148.458,115.592 148.234,114.353L144.94,114.367Z" style="fill:white;"/>
            <path id="path18" d="M69.653,137.459C69.605,138.975 70.463,140.071 71.389,140.539C72.632,141.168 74.141,141.055 75.633,141.055C77.072,141.055 84.289,141.15 85.083,141.005L85.066,137.7C84.083,137.528 77.461,137.663 75.52,137.663C74.659,137.664 73.19,137.863 73.122,136.963C72.718,136.453 72.926,132.279 72.926,131.327L72.923,114.445L69.639,114.442L69.653,137.459Z" style="fill:white;"/>
            <path id="path20" d="M163.668,141.056L167.075,141.025L167.074,114.355L163.665,114.354L163.668,141.056Z" style="fill:white;"/>
        </g>
        <g id="Layer1002">
            <g id="Layer1003">
                <path id="path23" d="M119.154,102.421C119.675,103.301 120.174,106.128 122.842,108.62C123.273,109.023 123.613,109.458 124.094,109.853C124.556,110.233 124.976,110.607 125.468,110.963C126.172,111.474 127.658,112.508 128.589,112.854C128.448,112.153 127.743,110.849 127.464,109.871C127.177,108.862 126.971,107.63 126.93,106.49C126.872,104.903 127.359,100.876 128.132,99.88L128.07,99.598C127.946,99.445 127.867,99.295 127.734,99.1L126.942,98.084C126.203,97.102 124.501,95.595 123.443,94.808C123.031,94.503 122.767,94.284 122.334,93.997C121.911,93.717 121.611,93.489 121.174,93.238C120.731,92.983 120.424,92.641 119.895,92.597C119.464,94.45 119.301,93.612 118.739,97.199C118.513,98.639 118.671,101.326 119.154,102.421Z" style="fill:rgb(117,124,37);"/>
                <path id="path25" d="M128.589,112.854L128.801,112.955C128.946,112.275 129.275,111.594 129.49,110.875C129.718,110.111 129.804,109.414 129.99,108.63C130.079,106.559 130.226,105.582 129.74,103.514C129.48,102.404 128.738,100.58 128.132,99.88C127.359,100.876 126.872,104.903 126.93,106.49C126.971,107.629 127.177,108.861 127.464,109.871C127.743,110.849 128.448,112.153 128.589,112.854Z" style="fill:rgb(105,101,52);"/>
            </g>
            <path id="path36" d="M129.99,108.63C129.804,109.414 129.718,110.111 129.49,110.875C129.275,111.594 128.946,112.275 128.801,112.955L130.499,112.262C130.947,112.093 132.458,111.386 132.655,111.106C133.072,110.971 133.808,110.523 134.104,110.231C134.739,109.927 135.225,109.402 135.73,109.033C136.445,108.312 138.252,106.697 138.613,105.728C138.636,105.705 138.673,105.64 138.684,105.661C138.694,105.681 138.738,105.611 138.752,105.595L139.406,104.54C139.65,104.104 139.898,103.69 139.951,103.234C140.375,102.835 140.128,102.777 140.446,102.483C140.616,102.016 140.74,101.521 140.883,101.051C140.995,100.686 141.192,100.05 141.236,99.682C141.318,99.208 141.462,98.524 141.462,98.004C141.74,94.822 141.824,95.5 141.466,91.69C141.366,90.625 141.238,89.719 141.056,88.713C140.949,88.127 140.877,87.801 140.793,87.28C140.703,86.725 140.658,86.699 139.772,87.177L139.091,87.571C138.674,87.671 138.428,87.846 138.069,88.074C138.048,88.087 138.018,88.103 137.998,88.117L137.736,88.32C137.254,88.54 136.807,88.885 136.344,89.21L133.219,91.895C132.933,92.128 132.831,92.365 132.572,92.627C132.292,92.91 132.1,92.994 131.952,93.388C131.63,93.639 131.425,93.931 131.168,94.273C130.913,94.613 130.619,94.882 130.509,95.326C130.195,95.521 130.381,95.378 130.146,95.734L128.07,99.598L128.132,99.88C128.737,100.58 129.48,102.404 129.74,103.514C130.226,105.582 130.079,106.559 129.99,108.63L129.99,108.63Z" style="fill:url(#_Linear1);fill-rule:nonzero;"/>
        </g>
    </g>
    <defs>
        <linearGradient id="_Linear1" x1="0" y1="0" x2="1" y2="0" gradientUnits="userSpaceOnUse" gradientTransform="matrix(11.6864,-13.4504,13.4504,11.6864,132.555,117.815)"><stop offset="0" style="stop-color:rgb(167,198,153);stop-opacity:1"/><stop offset="1" style="stop-color:white;stop-opacity:1"/></linearGradient>
    </defs>
</svg>
